X:120
T:Italian Concerto - Presto (BWV 971)
C:Bach, J.S.
M:2/4
L:1/16
Q:1/4=132
K:D
|:ABCD EFGA|BcBA GFED|EFGA FEDC|D8|
ABCD EFG A|BcBA GFEF|GFED CDEF|D8:|

